dist/img/contact_support_FILL1_wght700_GRAD200_opsz48 1.svg

<svg width="25" height="25" viewBox="0 0 25 25" fill="none" xmlns="http://www.w3.org/2000/svg">
<g opacity="0.5">
<path d="M12.5522 23.9844L12.448 20.599L11.3022 20.5729C8.76744 20.3646 6.63203 19.3099 4.89591 17.4089C3.1598 15.5078 2.29175 13.2812 2.29175 10.7292C2.29175 8.03819 3.25963 5.73351 5.19539 3.8151C7.13116 1.8967 9.46189 0.9375 12.1876 0.9375C13.507 0.9375 14.7483 1.18924 15.9115 1.69271C17.0747 2.19618 18.0817 2.88194 18.9324 3.75C19.7831 4.61806 20.4558 5.65104 20.9506 6.84896C21.4454 8.04687 21.6928 9.34028 21.6928 10.7292C21.6928 12.066 21.4584 13.3724 20.9897 14.6484C20.5209 15.9245 19.8872 17.1267 19.0886 18.2552C18.29 19.3837 17.3352 20.4384 16.224 21.4193C15.1129 22.4002 13.889 23.2552 12.5522 23.9844ZM12.1876 16.9792C12.5174 16.9792 12.8039 16.8576 13.047 16.6146C13.29 16.3715 13.4115 16.0851 13.4115 15.7552C13.4115 15.4427 13.29 15.1606 13.047 14.9089C12.8039 14.6571 12.5174 14.5312 12.1876 14.5312C11.8577 14.5312 11.5669 14.6571 11.3152 14.9089C11.0634 15.1606 10.9376 15.4427 10.9376 15.7552C10.9376 16.0851 11.0634 16.3715 11.3152 16.6146C11.5669 16.8576 11.8577 16.9792 12.1876 16.9792ZM11.224 13.2812H12.9949C12.9949 12.8472 13.073 12.4696 13.2292 12.1484C13.3855 11.8273 13.672 11.467 14.0886 11.0677C14.5574 10.5816 14.8959 10.1432 15.1042 9.7526C15.3126 9.36198 15.4167 8.91493 15.4167 8.41146C15.4167 7.52604 15.152 6.81424 14.6225 6.27604C14.093 5.73785 13.3247 5.46875 12.3178 5.46875C11.5192 5.46875 10.803 5.69444 10.1694 6.14583C9.53567 6.59722 9.07126 7.21354 8.77612 7.99479L10.4167 8.64583C10.6077 8.17708 10.8638 7.82986 11.185 7.60417C11.5062 7.37847 11.8404 7.26562 12.1876 7.26562C12.6216 7.26562 12.9688 7.36111 13.2292 7.55208C13.4897 7.74306 13.6199 8.02951 13.6199 8.41146C13.6199 8.7066 13.5244 9.01042 13.3334 9.32292C13.1424 9.63542 12.8299 10.026 12.3959 10.4948C11.8924 10.9809 11.5713 11.4019 11.4324 11.7578C11.2935 12.1137 11.224 12.6215 11.224 13.2812Z" fill="#00E0FF"/>
</g>
</svg>

<svg width="25" height="25" fill="none" xmlns="http://www.w3.org/2000/svg"><path d="m12.552 23.984-.104-3.385-1.146-.026c-2.535-.208-4.67-1.263-6.406-3.164-1.736-1.901-2.604-4.128-2.604-6.68 0-2.69.968-4.995 2.903-6.914C7.131 1.897 9.462.938 12.188.938a9.26 9.26 0 0 1 3.723.755 9.418 9.418 0 0 1 3.021 2.057c.851.868 1.524 1.901 2.019 3.099.494 1.198.742 2.491.742 3.88 0 1.337-.235 2.643-.703 3.92a15.435 15.435 0 0 1-1.901 3.606 18.413 18.413 0 0 1-2.865 3.164 19.989 19.989 0 0 1-3.672 2.565Zm-.364-7.005c.33 0 .616-.121.859-.364s.364-.53.364-.86c0-.312-.121-.594-.364-.846a1.156 1.156 0 0 0-.86-.378c-.33 0-.62.126-.872.378s-.377.534-.377.846c0 .33.125.617.377.86s.543.364.873.364Zm-.964-3.698h1.77c0-.434.079-.811.235-1.133.157-.32.443-.681.86-1.08.468-.486.807-.925 1.015-1.315.209-.391.313-.838.313-1.342 0-.885-.265-1.597-.794-2.135-.53-.538-1.298-.807-2.305-.807a3.61 3.61 0 0 0-2.149.677c-.633.451-1.098 1.068-1.393 1.849l1.64.65c.192-.468.448-.815.769-1.04a1.72 1.72 0 0 1 1.003-.34c.434 0 .78.096 1.041.287.26.191.39.478.39.86 0 .295-.095.598-.286.91-.19.313-.503.704-.937 1.173-.504.486-.825.907-.964 1.263-.139.356-.208.864-.208 1.523Z" fill="#00E0FF" opacity=".5"/></svg>
